.local/share/icons/Gruvbox-Plus-Dark/mimetypes/scalable/wps-office-dpt.svg

<svg width="256" height="256" viewBox="0 0 256 256" fill="none" xmlns="http://www.w3.org/2000/svg">
<g opacity="0.4" filter="url(#filter0_f)">
<path d="M55.0839 15.5636H155.608L216.009 75.7129L216.011 224.609C216.011 233.52 208.749 240.737 199.838 240.737H55.0838C46.1734 240.737 39 233.564 39 224.654V31.6474C39 22.737 46.1734 15.5636 55.0838 15.5636H55.0839Z" fill="#282828"/>
</g>
<path d="M55.0839 15H155.608L216.009 75.1493L216.011 224.045C216.011 232.956 208.749 240.174 199.838 240.174H55.0838C46.1734 240.174 39 233 39 224.09V31.0838C39 22.1734 46.1734 15 55.0838 15H55.0839Z" fill="#ebdbb2"/>
<path opacity="0.2" d="M199.838 240.174C208.749 240.174 216.011 232.956 216.011 224.046L216.01 186.5H39V224.09C39 233 46.1734 240.174 55.0838 240.174H199.838Z" fill="url(#paint0_linear)"/>
<path fill-rule="evenodd" clip-rule="evenodd" d="M155.608 20.3191H55.0839C49.1112 20.3191 44.3191 25.1111 44.3191 31.0838V224.09C44.3191 230.063 49.1111 234.855 55.0838 234.855H199.838C205.83 234.855 210.692 229.999 210.692 224.046V75.1493L155.608 20.3191ZM155.608 15H55.0839C46.1735 15 39 22.1734 39 31.0838V224.09C39 233 46.1734 240.174 55.0838 240.174H199.838C208.749 240.174 216.011 232.956 216.011 224.045L216.009 75.1493L155.608 15Z" fill="url(#paint1_linear)"/>
<path d="M92.3648 198V226H100.845C111.125 226 114.485 218.4 114.485 212C114.485 205.04 110.805 198 101.005 198H92.3648ZM101.525 221.48H97.1648V202.52H101.965C107.285 202.52 109.525 207.28 109.525 212C109.525 216.4 107.485 221.48 101.525 221.48ZM120.295 226H125.095V215.4H131.935C138.655 215.4 141.335 210.68 141.335 206.68C141.335 202.4 138.895 198 131.935 198H120.295V226ZM132.175 210.84H125.095V202.56H132.175C135.455 202.56 136.375 204.92 136.375 206.68C136.375 208.64 135.255 210.84 132.175 210.84ZM156.489 202.6H164.449V198H143.729V202.6H151.689V226H156.489V202.6Z" fill="url(#paint2_linear)"/>
<path d="M128.197 60C110.137 63.1018 92.0654 67.2161 74.0053 70.2607C74.0053 96.7536 73.9933 123.257 74.0053 149.762C91.9719 152.795 109.948 156.842 127.878 160H133.26V60H128.197ZM101.021 91.4893C104.585 91.4161 108.004 91.9107 110.782 94.333C116.102 100.559 114.696 112.012 106.807 115.738C104.004 117.118 100.794 116.929 97.7441 116.834C97.732 121.489 97.72 126.143 97.732 130.797C95.2876 130.595 92.8321 130.393 90.3876 130.203C90.2765 117.488 90.2506 105.35 90.3988 92.6357C93.8756 92.2179 97.458 91.5616 101.022 91.4893H101.021ZM100.611 98.3875C99.6385 98.3643 98.6441 98.4491 97.7311 98.4893C97.6941 102.489 97.6718 106.476 97.9311 110.464C100.388 110.179 103.573 110.418 104.98 107.964C106.153 105.561 106.226 102.487 104.819 100.154C103.793 98.7777 102.231 98.4295 100.611 98.3875ZM136.966 74.2857V86.1562C138.702 85.7964 140.587 85.1205 142.52 85.0089V101.071H159.074C158.487 105.945 156.233 110.954 151.778 113.5C147.408 116.333 141.854 116.37 136.965 114.905C136.977 117.238 136.953 121.953 136.965 124.286H166.593V127.857H136.965V135H166.593V138.571H136.965V149.286H174V74.2857H136.965H136.966ZM146.222 82.8446C154.097 83.6304 160.608 89.925 161.466 97.5H146.222V82.8446Z" fill="url(#paint3_linear)"/>
<path opacity="0.25" d="M155.608 17V61.2306C155.608 70.141 162.867 77.1605 171.777 77.1605L216.009 77.1493V75.1493L155.608 17Z" fill="#282828"/>
<path d="M155.608 15V59.2306C155.608 68.141 162.867 75.1605 171.777 75.1605L216.009 75.1493L155.608 15Z" fill="url(#paint4_linear)"/>
<defs>
<filter id="filter0_f" x="23.8778" y="0.441412" width="207.255" height="255.418" filterUnits="userSpaceOnUse" color-interpolation-filters="sRGB">
<feFlood flood-opacity="0" result="BackgroundImageFix"/>
<feBlend mode="normal" in="SourceGraphic" in2="BackgroundImageFix" result="shape"/>
<feGaussianBlur stdDeviation="7.5611" result="effect1_foregroundBlur"/>
</filter>
<linearGradient id="paint0_linear" x1="127.506" y1="240.174" x2="127.506" y2="186.5" gradientUnits="userSpaceOnUse">
<stop offset="1e-07" stop-color="#fb4934"/>
<stop offset="1" stop-color="#fe8019"/>
</linearGradient>
<linearGradient id="paint1_linear" x1="127.506" y1="240.176" x2="127.506" y2="14.9981" gradientUnits="userSpaceOnUse">
<stop offset="1e-07" stop-color="#fb4934"/>
<stop offset="1" stop-color="#fe8019"/>
</linearGradient>
<linearGradient id="paint2_linear" x1="127.5" y1="240" x2="127.5" y2="187" gradientUnits="userSpaceOnUse">
<stop offset="1e-07" stop-color="#fb4934"/>
<stop offset="1" stop-color="#fe8019"/>
</linearGradient>
<linearGradient id="paint3_linear" x1="124" y1="160.001" x2="124" y2="59.9992" gradientUnits="userSpaceOnUse">
<stop offset="1e-07" stop-color="#fb4934"/>
<stop offset="1" stop-color="#fe8019"/>
</linearGradient>
<linearGradient id="paint4_linear" x1="185.808" y1="75.161" x2="185.808" y2="14.9995" gradientUnits="userSpaceOnUse">
<stop offset="1e-07" stop-color="#fb4934"/>
<stop offset="1" stop-color="#fe8019"/>
</linearGradient>
</defs>
</svg>

<svg width="256" height="256" fill="none" version="1.1" viewBox="0 0 256 256" xmlns="http://www.w3.org/2000/svg">
  <path d="m55.08 15h100.5l60.4 60.15 2e-3 148.9c0 8.911-7.262 16.13-16.17 16.13h-144.8c-8.91 0-16.08-7.174-16.08-16.08v-193c0-8.91 7.173-16.08 16.08-16.08h1e-4z" fill="#ebdbb2"/>
  <path d="m199.8 240.2c8.911 0 16.17-7.218 16.17-16.13l-1e-3 -37.55h-177v37.59c0 8.91 7.173 16.08 16.08 16.08h144.8z" fill="url(#paint0_linear)" opacity=".2"/>
  <path d="m155.6 20.32h-100.5c-5.973 0-10.76 4.792-10.76 10.76v193c0 5.973 4.792 10.76 10.76 10.76h144.8c5.992 0 10.85-4.856 10.85-10.81v-148.9l-55.08-54.83zm0-5.319h-100.5c-8.91 0-16.08 7.173-16.08 16.08v193c0 8.91 7.173 16.08 16.08 16.08h144.8c8.911 0 16.17-7.218 16.17-16.13l-2e-3 -148.9-60.4-60.15z" clip-rule="evenodd" fill="url(#paint1_linear)" fill-rule="evenodd"/>
  <path d="m92.36 198v28h8.48c10.28 0 13.64-7.6 13.64-14 0-6.96-3.68-14-13.48-14h-8.64zm9.16 23.48h-4.36v-18.96h4.8c5.32 0 7.56 4.76 7.56 9.48 0 4.4-2.04 9.48-8 9.48zm18.77 4.52h4.8v-10.6h6.84c6.72 0 9.4-4.72 9.4-8.72 0-4.28-2.44-8.68-9.4-8.68h-11.64v28zm11.88-15.16h-7.08v-8.28h7.08c3.28 0 4.2 2.36 4.2 4.12 0 1.96-1.12 4.16-4.2 4.16zm24.31-8.24h7.96v-4.6h-20.72v4.6h7.96v23.4h4.8v-23.4z" fill="url(#paint2_linear)"/>
  <path d="m128.2 60c-18.06 3.102-36.13 7.216-54.19 10.26 0 26.49-0.012 53 0 79.5 17.97 3.033 35.94 7.08 53.87 10.24h5.382v-100h-5.063zm-27.18 31.49c3.564-0.0732 6.983 0.4214 9.761 2.844 5.32 6.226 3.914 17.68-3.975 21.4-2.803 1.38-6.013 1.191-9.063 1.096-0.0121 4.655-0.0241 9.309-0.0121 13.96-2.444-0.202-4.9-0.404-7.344-0.594-0.1111-12.72-0.137-24.85 0.0112-37.57 3.477-0.4178 7.059-1.074 10.62-1.146h-1e-3zm-0.41 6.898c-0.9725-0.0232-1.967 0.0616-2.88 0.1018-0.037 4-0.0593 7.987 0.2 11.97 2.457-0.285 5.642-0.046 7.049-2.5 1.173-2.403 1.246-5.477-0.161-7.81-1.026-1.376-2.588-1.724-4.208-1.766zm36.36-24.1v11.87c1.736-0.3598 3.621-1.036 5.554-1.147v16.06h16.55c-0.587 4.874-2.841 9.883-7.296 12.43-4.37 2.833-9.924 2.87-14.81 1.405 0.012 2.333-0.012 7.048 0 9.381h29.63v3.571h-29.63v7.143h29.63v3.571h-29.63v10.72h37.04v-75h-37.04 1e-3zm9.256 8.559c7.875 0.7858 14.39 7.08 15.24 14.66h-15.24v-14.66z" fill="url(#paint3_linear)"/>
  <path d="m155.6 17v44.23c0 8.91 7.259 15.93 16.17 15.93l44.23-0.0112v-2l-60.4-58.15z" fill="#282828" opacity=".25"/>
  <path d="m155.6 15v44.23c0 8.91 7.259 15.93 16.17 15.93l44.23-0.0112-60.4-60.15z" fill="url(#paint4_linear)"/>
  <defs>
    <linearGradient id="paint0_linear" x1="127.5" x2="127.5" y1="240.2" y2="186.5" gradientUnits="userSpaceOnUse">
      <stop stop-color="#fb4934" offset="1e-7"/>
      <stop stop-color="#fe8019" offset="1"/>
    </linearGradient>
    <linearGradient id="paint1_linear" x1="127.5" x2="127.5" y1="240.2" y2="15" gradientUnits="userSpaceOnUse">
      <stop stop-color="#fb4934" offset="1e-7"/>
      <stop stop-color="#fe8019" offset="1"/>
    </linearGradient>
    <linearGradient id="paint2_linear" x1="127.5" x2="127.5" y1="240" y2="187" gradientUnits="userSpaceOnUse">
      <stop stop-color="#fb4934" offset="1e-7"/>
      <stop stop-color="#fe8019" offset="1"/>
    </linearGradient>
    <linearGradient id="paint3_linear" x1="124" x2="124" y1="160" y2="60" gradientUnits="userSpaceOnUse">
      <stop stop-color="#fb4934" offset="1e-7"/>
      <stop stop-color="#fe8019" offset="1"/>
    </linearGradient>
    <linearGradient id="paint4_linear" x1="185.8" x2="185.8" y1="75.16" y2="15" gradientUnits="userSpaceOnUse">
      <stop stop-color="#fb4934" offset="1e-7"/>
      <stop stop-color="#fe8019" offset="1"/>
    </linearGradient>
  </defs>
</svg>
